X:72
T:Invitation, The
M:2/4
L:1/8
B:Thompson's Compleat Collection of 200 Favourite Country Dances, vol. 2 (London, 1765)
Z:Transcribed and edited by Flynn Titford-Mock, 2007
Z:abc's:AK/Fiddler's Companion
K:D
A | D>AF>A E/E/ Ed | D>AF>A | D>AF>d | D>AF>A | E/E/E EA | BGAF | d/d/d d :|
|: (B/c/) | dAFD | E/E/E Ec | dAFD | dAFD | G>BA>F | E/E/E Ed | e>gf>e | d/d/d d :|

